!!!SOCIAL_FUNCTION:	songs of the sun dance
!!!PDT:	1918

Specific Region: Dakotas, Minnesota, Montana, Nebraska
!!!REG: Dakotas and Montana
!!!LING_GROUP: Siouan
!!!LANG: Tone
!!!OTL@ENG: Dancing Song (f)
!!!ONM: No. 34
**kern
*Imale
*clefF4
*k[b-e-a-d-g-]
*M2/4
*>[A,B,B]
*>norep[A,B]
*>A
*MM176
[2f
=2
4f]
8g-
8f
=3
8f
8e-
8e-
8c
=4
2B-
*>B
=5!|:
[2f
=6
4f]
8g-
8f
=7
8f
8e-
8e-
8c
=8
2B-
=9
2B-
=10
4B-
8d-
8B-
=11
8B-
8A-
4A-
=12
2F
=13
2B-
=14
4B-
8e-
8B-
=15
8d-
8B-
4A-
=16
2F
=17
[2F
=18
4F]
8A-
8F
=19
8F
8E-
8E-
8C
=20
2BB-
=21
2F
=22
4F
8A-
8F
=23
8B-
8A-
4A-
=24
2F
=25
[2F
=26
4F]
8A-
8F
=27
8F
8E-
8E-
8C
=28
4BB-
4D-
=29
8E-
8D-
4D-
=30
8D-
8BB-
4BB-
=31
2BB-
=32
2BB-
==:|!
*-
!!!CNT: Native American -- Sioux
!!!MRD: 1911/07//-1914///
!!!OCL: Frances Densmore
!!!YOR1: Teton Sioux Music, Bulletin 61,
!!!YOR2: Bureau of American Ethnology, Smithsonian Institution
!!!PPR: Government Printing Office
!!!PPP: Washington, D.C.
!!!PDT: 1918///
!!!ENC: Craig Stuart Sapp
!!!END: 2002/03/25/
!!!EEV: 2002/03/31/
!!!AGN: Ceremonial Song/Song of the Sun Dance
!!!MPN@@SIO: Shiya'ka
!!!MPN@ENG: Teal Duck
!!!TXO: Teton Sioux
!!!MLC: Standing Rock Reservation, South Dakota, United States of America
!!!ARL: 45.9/-100.7#
!!!catalog: Catalogue No. 458
!!!PPG: 147
!!!EFL: 34/245
!!!VTS: 2418373060
